X:1
T: Johnny Get Your Gun
C:
R:Reel
Q: 232
K:A
M:4/4
L:1/8
|:Ac BA F2 E2|F2 EE F2 EE|Ac BA F2 EE|F2 G2 A2 z2|
Ac BA F2 E2|F2 EE F2 EE|Ac BA F2 EE|F2 G2 A2 z2|
AB cd e2 e2|fe dc Bd cB|AB cd e2 e2|fe dc B2 E2|
AB cd e2 e2|fe dc Bd cB|Ac BA F2 EE|F2 G2 A2 z2:|
